src/topics/icons/sketchapp.svg

<svg height="256" preserveAspectRatio="xMidYMid" viewBox="0 0 256 256" width="256" xmlns="http://www.w3.org/2000/svg"><circle cx="128" cy="128" r="128"/><path d="m188.717949 69.3333335-29.842234-13.1282052h-61.872866l-29.6598974 13.3714416-24.6762849 27.410963 85.3333333 113.4740051 85.333333-113.4740051zm17.504273 28.3901082-26.985755 20.1933673-19.190883-28.7544157 27.152775-12.778849zm-36.892809 23.2719313h-84.2393161l16.7654471-29.7816977 50.212832.121436zm-66.79959-60.3467119h51.40057l25.306074 11.1600684-25.414382 11.0699943h-51.400569l-25.1580174-11.0608775zm-33.7861649 15.7348832 25.4632479 12.7635328-18.2336183 28.2015729-26.2534928-19.6252083zm-9.240433 36.2079547 16.5911339 13.988467 39.472137 64.955806zm27.887225 17.642119h79.9846839l-39.375134 72.569801zm52.9850709 61.302154 39.472137-64.955806 16.591134-13.988467z" fill="#36cef9"/></svg>

<?xml version="1.0" encoding="UTF-8" standalone="no"?>
<svg width="256px" height="256px" viewBox="0 0 256 256" version="1.1" xmlns="http://www.w3.org/2000/svg" xmlns:xlink="http://www.w3.org/1999/xlink" preserveAspectRatio="xMidYMid">
	<g>
		<circle fill="#000000" cx="128" cy="128" r="128"></circle>
		<path d="M188.717949,69.3333335 L158.875715,56.2051283 L97.002849,56.2051283 L67.3429516,69.5765699 L42.6666667,96.9875329 L128,210.461538 L213.333333,96.9875329 L188.717949,69.3333335 L188.717949,69.3333335 Z M206.222222,97.7234417 L179.236467,117.916809 L160.045584,89.1623933 L187.198359,76.3835443 L206.222222,97.7234417 L206.222222,97.7234417 Z M169.329413,120.995373 L85.0900969,120.995373 L101.855544,91.2136753 L152.068376,91.3351113 L169.329413,120.995373 L169.329413,120.995373 Z M102.529823,60.6486611 L153.930393,60.6486611 L179.236467,71.8087295 L153.822085,82.8787238 L102.421516,82.8787238 L77.2634986,71.8178463 L102.529823,60.6486611 L102.529823,60.6486611 Z M68.7436581,76.3835443 L94.206906,89.1470771 L75.9732877,117.34865 L49.7197949,97.7234417 L68.7436581,76.3835443 L68.7436581,76.3835443 Z M59.5032251,112.591499 L76.094359,126.579966 L115.566496,191.535772 L59.5032251,112.591499 L59.5032251,112.591499 Z M87.3904501,130.233618 L167.375134,130.233618 L128,202.803419 L87.3904501,130.233618 L87.3904501,130.233618 Z M140.375521,191.535772 L179.847658,126.579966 L196.438792,112.591499 L140.375521,191.535772 L140.375521,191.535772 Z" fill="#36CEF9"></path>
	</g>
</svg>
